src/assets/stack/infra/docker.svg

<svg xmlns="http://www.w3.org/2000/svg"  viewBox="0 0 48 48" width="48px" height="48px"><path fill="#03A9F4" d="M40,20c0.391-1.735-0.092-3.78-2.5-6c-3.914,3.543-2.795,7.227-1.5,9c0,0-0.166,1-4,1S2,24,2,24S0.167,40,18,40c15.593,0,19.973-12.003,20.828-15.076C39.182,24.972,39.579,25.003,40,25c2.147-0.017,4.93-1.171,6-5.484C43.162,18.533,41.339,18.978,40,20z"/><path fill="#0288D1" d="M2.165,28C2.9,32.739,5.983,40,18,40c12.185,0,17.523-7.33,19.682-12H2.165z"/><path fill="#81D4FA" d="M19.812,39.938C18.892,39.616,14.74,38.848,14,33c-4.209,1.863-7.938,1.375-9.579,1.008C6.583,37.237,10.591,40,18,40C18.623,40,19.224,39.976,19.812,39.938z"/><path fill="#FFF" d="M18 30A2 2 0 1 0 18 34A2 2 0 1 0 18 30Z"/><path fill="#37474F" d="M14.914,33.597c0.224,0.505,0.02,1.162-0.51,1.318c-3.301,0.973-6.146,1.102-8.297,1.102c-0.644-0.619-1.194-1.279-1.656-1.963c2.585,0,6.71-0.12,9.144-0.966C14.117,32.906,14.69,33.09,14.914,33.597z M2,27c0,0,1.875,0.125,3-1c1.875,1.688,5.94,1.088,7,0c1.063,1.688,6.938,1.375,8,0c1.25,1.438,6.625,1.75,8,0c0.479,1.461,6.819,1.874,8,0c1.061,1.088,5.063,1.938,7.311,0C43.875,27.188,46,27,46,27v1H2 M17,32c0,0.552,0.448,1,1,1s1-0.448,1-1s-0.448-1-1-1S17,31.448,17,32z"/><path fill="#01579B" d="M11,24H6v-5h5V24z M21,19h-5v5h5V19z M31,19h-5v5h5V19z M16,14h-5v5h5V14z M26,14h-5v5h5V14z"/><path fill="#0288D1" d="M16,24h-5v-5h5V24z M26,19h-5v5h5V19z M26,9h-5v5h5V9z M21,14h-5v5h5V14z"/></svg>

<svg xmlns="http://www.w3.org/2000/svg" viewBox="0 0 48 48"><path fill="#03A9F4" d="M40 20c.4-1.7 0-3.8-2.5-6-4 3.5-2.8 7.2-1.5 9 0 0-.2 1-4 1H2S.2 40 18 40c15.6 0 20-12 20.8-15H40c2.1 0 5-1.2 6-5.5-2.8-1-4.7-.5-6 .5z"/><path fill="#0288D1" d="M2.2 28C2.9 32.7 6 40 18 40c12.2 0 17.5-7.3 19.7-12H2.2z"/><path fill="#81D4FA" d="M19.8 40c-1-.4-5-1.2-5.8-7-4.2 1.9-8 1.4-9.6 1 2.2 3.2 6.2 6 13.6 6h1.8z"/><path fill="#FFF" d="M18 30a2 2 0 1 0 0 4 2 2 0 1 0 0-4Z"/><path fill="#37474F" d="M15 33.6c.1.5 0 1.2-.6 1.3-3.3 1-6.1 1.1-8.3 1.1-.6-.6-1.2-1.3-1.6-2a33 33 0 0 0 9-1c.6 0 1.2 0 1.4.6zM2 27s1.9.1 3-1c1.9 1.7 6 1 7 0 1 1.7 7 1.4 8 0 1.3 1.4 6.6 1.8 8 0 .5 1.5 6.8 1.9 8 0 1 1 5 2 7.3 0 .6 1.2 2.7 1 2.7 1v1H2m15 4a1 1 0 1 0 2 0 1 1 0 0 0-2 0z"/><path fill="#01579B" d="M11 24H6v-5h5v5zm10-5h-5v5h5v-5zm10 0h-5v5h5v-5zm-15-5h-5v5h5v-5zm10 0h-5v5h5v-5z"/><path fill="#0288D1" d="M16 24h-5v-5h5v5zm10-5h-5v5h5v-5zm0-10h-5v5h5V9zm-5 5h-5v5h5v-5z"/></svg>
